X: 7231
T: Clancy's
R: jig
M: 6/8
K: Dmajor
FA|:BEE ABd|BEE BAF|BEE ABd|BAF AFD|
BEE ABd|ABE BAF|DFA ded|1 BAF AFD:|2 BAF AFE||
|:DFA d2A|BBd BAF|DFA ded|cAG FEF|
DFA d3|e3 ede|f3 ede|1 fdB AFE:|2 fdB A3||

